dist/img/icons/star-active.svg

<svg width="40" height="40" viewBox="0 0 40 40" fill="none" xmlns="http://www.w3.org/2000/svg">
<path fill-rule="evenodd" clip-rule="evenodd" d="M18.0883 6.8851C18.8133 5.21343 21.1866 5.21343 21.9116 6.8851L25.2116 14.4951L33.4683 15.2818C35.2816 15.4534 36.015 17.7101 34.6483 18.9168L28.4316 24.4068L30.235 32.5018C30.6316 34.2818 28.7116 35.6751 27.1416 34.7484L20 30.5334L12.8583 34.7501C11.2883 35.6768 9.36831 34.2834 9.76497 32.5034L11.5683 24.4084L5.35164 18.9184C3.98497 17.7118 4.71831 15.4551 6.53331 15.2834L14.7883 14.4968L18.0883 6.88676V6.8851ZM20 10.8568L17.455 16.7234L17.065 17.6268L16.085 17.7201L9.71831 18.3268L14.5116 22.5601L15.25 23.2101L15.0366 24.1701L13.645 30.4134L19.1533 27.1618L20 26.6618L20.8466 27.1618L26.355 30.4118L24.9633 24.1701L24.75 23.2101L25.4883 22.5601L30.2816 18.3268L23.915 17.7201L22.935 17.6268L22.545 16.7234L20 10.8568Z" fill="#F8F8FF"/>
<path d="M19.9999 10.8701L22.9327 17.6334L30.2713 18.3327L24.7453 23.212L26.348 30.4075L19.9999 26.6597L13.6518 30.4075L15.2545 23.212L9.72852 18.3327L17.0671 17.6334L19.9999 10.8701Z" fill="#FEB058"/>
</svg>

<svg width="40" height="40" fill="none" xmlns="http://www.w3.org/2000/svg"><path fill-rule="evenodd" clip-rule="evenodd" d="M18.088 6.885c.725-1.672 3.099-1.672 3.824 0l3.3 7.61 8.256.787c1.814.171 2.547 2.428 1.18 3.635l-6.216 5.49 1.803 8.095c.397 1.78-1.523 3.173-3.093 2.246L20 30.533l-7.142 4.217c-1.57.927-3.49-.467-3.093-2.247l1.803-8.095-6.216-5.49c-1.367-1.206-.634-3.463 1.181-3.635l8.255-.786 3.3-7.61v-.002zM20 10.857l-2.545 5.866-.39.904-.98.093-6.367.607 4.794 4.233.738.65-.213.96-1.392 6.243 5.508-3.251.847-.5.847.5 5.508 3.25-1.392-6.242-.213-.96.738-.65 4.794-4.233-6.367-.607-.98-.093-.39-.904L20 10.857z" fill="#F8F8FF"/><path d="M20 10.87l2.933 6.763 7.338.7-5.526 4.879 1.603 7.195L20 26.66l-6.348 3.747 1.603-7.195-5.526-4.88 7.338-.699L20 10.87z" fill="#FEB058"/></svg>
